static/icons/companies/github-light.svg

<svg width="32" height="32" viewBox="0 0 32 32" fill="none" xmlns="http://www.w3.org/2000/svg">
<path fill-rule="evenodd" clip-rule="evenodd" d="M15.956 1.3335C7.86985 1.3335 1.33301 8.05572 1.33301 16.372C1.33301 23.0197 5.52139 28.6468 11.3318 30.6384C12.0582 30.7881 12.3243 30.3148 12.3243 29.9167C12.3243 29.568 12.3004 28.373 12.3004 27.1279C8.23263 28.0244 7.38555 25.3352 7.38555 25.3352C6.73184 23.5923 5.76324 23.1444 5.76324 23.1444C4.43186 22.2231 5.86022 22.2231 5.86022 22.2231C7.33706 22.3227 8.112 23.7668 8.112 23.7668C9.41913 26.0572 11.5254 25.41 12.3728 25.0116C12.4937 24.0405 12.8814 23.3683 13.2929 22.9949C10.0486 22.6463 6.63516 21.3517 6.63516 15.5751C6.63516 13.9319 7.21584 12.5874 8.13595 11.5418C7.99078 11.1684 7.48223 9.62444 8.28142 7.55797C8.28142 7.55797 9.51611 7.15952 12.3001 9.10163C13.492 8.77245 14.7212 8.60499 15.956 8.60358C17.1907 8.60358 18.4493 8.77805 19.6116 9.10163C22.3958 7.15952 23.6305 7.55797 23.6305 7.55797C24.4297 9.62444 23.9209 11.1684 23.7757 11.5418C24.7201 12.5874 25.2768 13.9319 25.2768 15.5751C25.2768 21.3517 21.8633 22.6212 18.5948 22.9949C19.1276 23.4679 19.5873 24.3641 19.5873 25.7834C19.5873 27.8001 19.5634 29.4186 19.5634 29.9164C19.5634 30.3148 19.8298 30.7881 20.5559 30.6387C26.3663 28.6465 30.5547 23.0197 30.5547 16.372C30.5786 8.05572 24.0179 1.3335 15.956 1.3335Z" fill="white"/>
</svg>

<svg xmlns="http://www.w3.org/2000/svg" width="32" height="32" fill="none"><path fill="#fff" fill-rule="evenodd" d="M15.956 1.334c-8.086 0-14.623 6.722-14.623 15.038 0 6.648 4.188 12.275 9.999 14.266.726.15.992-.323.992-.721 0-.349-.024-1.544-.024-2.79-4.067.897-4.914-1.792-4.914-1.792-.654-1.743-1.623-2.19-1.623-2.19-1.331-.922.097-.922.097-.922 1.477.1 2.252 1.544 2.252 1.544 1.307 2.29 3.413 1.643 4.26 1.245.122-.971.51-1.644.92-2.017-3.243-.349-6.657-1.643-6.657-7.42 0-1.643.58-2.988 1.5-4.033-.144-.374-.653-1.918.146-3.984 0 0 1.235-.398 4.02 1.544a13.79 13.79 0 0 1 3.655-.498c1.235 0 2.493.174 3.656.498 2.784-1.942 4.019-1.544 4.019-1.544.799 2.066.29 3.61.145 3.984.944 1.045 1.5 2.39 1.5 4.033 0 5.777-3.413 7.046-6.681 7.42.533.473.992 1.37.992 2.788 0 2.017-.024 3.636-.024 4.133 0 .399.267.872.993.723 5.81-1.992 9.999-7.62 9.999-14.267.024-8.316-6.537-15.038-14.599-15.038" clip-rule="evenodd"/></svg>
